!!!OTL: ZWEI HERZEN IM LEBEN GAR SCHOEN SICH ERGEBEN
!!!ARE: Europa, Mitteleuropa, Deutschland, Schwaben
!!!SCT: Z0256
!!!YEM: Copyright 1995, estate of Helmut Schaffrath.
**kern
*ICvox
*Ivox
*M3/8
*k[f#]
*G:
{16g
16a
=1
8b
8b
8cc
=2
16ee
16dd
8dd}
{16cc
16b
=3
16dd
16cc
8cc
8a
=4
16cc
16b
8b}
{16b
16dd
=5
16dd
16cc
8cc
8a
=6
16cc
16b
8b}
{16b
16dd
=7
16dd
16cc
8cc
8a
=8
16cc
16b
8b}
{16g
16a
=9
16b
16b
8b
8cc
=10
4dd}
{16cc
16b
=11
16dd
16cc
8cc
8a
=12
4g}
==
!!!AGN: lyrisches Lied, Romanze
!!!ONB: ESAC (Essen Associative Code) Database: ZUCCAL
!!!AMT: simple triple
!!!AIN: vox
!!!EED: Helmut Schaffrath
!!!EEV: 1.0
*-
